www/assets/icons/calendar_view_day.svg

<svg width="24" height="24" viewBox="0 0 24 24" xmlns="http://www.w3.org/2000/svg" fill='currentColor'><path d="M3 16.5H21V18.5H3V16.5ZM3 9.5H21V14.5H3V9.5ZM3 5.5H21V7.5H3V5.5Z"/></svg>

<svg xmlns="http://www.w3.org/2000/svg" width="24" height="24" viewBox="0 0 24 24" fill='currentColor'><path d="M3 16.5h18v2H3zm0-7h18v5H3zm0-4h18v2H3z"/></svg>
